svgs/regular/kiwi-bird.svg

<svg xmlns="http://www.w3.org/2000/svg" viewBox="0 0 576 512"><!--! Font Awesome Pro 6.4.2 by @fontawesome - https://fontawesome.com License - https://fontawesome.com/license (Commercial License) Copyright 2023 Fonticons, Inc. --><path d="M266.4 347.3c31.2-18.9 74.9-43.3 125.9-43.3H448c44.2 0 80-35.8 80-80s-35.8-80-80-80H392.3c-51 0-94.7-24.4-125.9-43.3C244.7 87.6 219.3 80 192 80C112.5 80 48 144.5 48 224s64.5 144 144 144c27.3 0 52.7-7.6 74.4-20.7zM392.3 352c-36.4 0-69.9 17.6-101.1 36.4c-11.1 6.7-22.9 12.3-35.2 16.7V456c0 13.3-10.7 24-24 24s-24-10.7-24-24V415.3c-5.3 .4-10.6 .7-16 .7c-16.6 0-32.7-2.1-48-6v46c0 13.3-10.7 24-24 24s-24-10.7-24-24V390.3C38.6 357.1 0 295.1 0 224C0 118 86 32 192 32c36.3 0 70.3 10.1 99.2 27.6C322.4 78.4 355.9 96 392.3 96H448c70.7 0 128 57.3 128 128V464c0 7.3-4.9 13.7-12 15.5s-14.5-1.3-18-7.7L477.6 348.6c-9.5 2.2-19.4 3.4-29.6 3.4H392.3zM448 200a24 24 0 1 1 0 48 24 24 0 1 1 0-48z"/></svg>

<svg xmlns="http://www.w3.org/2000/svg" viewBox="0 0 576 512"><!--! Font Awesome Pro 6.1.1 by @fontawesome - https://fontawesome.com License - https://fontawesome.com/license (Commercial License) Copyright 2022 Fonticons, Inc. --><path d="M424 224C424 210.7 434.7 200 448 200C461.3 200 472 210.7 472 224C472 237.3 461.3 248 448 248C434.7 248 424 237.3 424 224zM392.3 352C355.9 352 322.4 369.6 291.2 388.4C280.2 395.1 268.4 400.7 256 405.1V456C256 469.3 245.3 480 232 480C218.7 480 208 469.3 208 456V415.3C202.7 415.8 197.4 416 192 416C175.4 416 159.3 413.9 144 409.1V456C144 469.3 133.3 480 120 480C106.7 480 96 469.3 96 456V390.3C38.61 357.1 0 295.1 0 224C0 117.1 85.96 32 192 32C228.3 32 262.3 42.08 291.2 59.6C322.4 78.44 355.9 96 392.3 96H448C518.7 96 576 153.3 576 224V464C576 471.3 571.1 477.7 564 479.5C556.1 481.3 549.6 478.1 546 471.8L477.6 348.6C468.1 350.8 458.2 352 448 352H392.3zM392.3 304H448C492.2 304 528 268.2 528 224C528 179.8 492.2 144 448 144H392.3C341.3 144 297.6 119.6 266.4 100.7C244.7 87.56 219.3 80 191.1 80C112.5 80 47.1 144.5 47.1 224C47.1 303.5 112.5 368 191.1 368C219.3 368 244.7 360.4 266.4 347.3C297.6 328.4 341.3 304 392.3 304z"/></svg>
